dist/svgs/crypto-icons/icons/1st.svg

<?xml version="1.0" encoding="UTF-8" standalone="yes"?>
<svg xmlns="http://www.w3.org/2000/svg" xmlns:xlink="http://www.w3.org/1999/xlink" width="252px" height="510.66666666666663px" viewBox="0 0 189 383" version="1.1">
  <g id="surface1">
    <path style=" stroke:none;fill-rule:evenodd;fill:rgb(0%,0%,0%);fill-opacity:1;" d="M 173.40625 3.453125 C 173.140625 3.71875 172.738281 4.050781 172.207031 4.449219 C 171.671875 4.847656 171.273438 5.3125 171.007812 5.84375 L 5.464844 173.550781 C 4.941406 173.804688 4.519531 174.226562 4.265625 174.746094 L 3.464844 176.339844 C 0 180.585938 -0.867188 184.171875 0.867188 187.09375 C 2.597656 190.015625 6.664062 191.476562 13.0625 191.476562 L 85.835938 191.476562 C 90.101562 192.007812 93.632812 194 96.433594 197.453125 C 99.230469 200.902344 100.632812 204.621094 100.632812 208.605469 L 100.632812 301.023438 C 100.632812 302.351562 101.03125 303.878906 101.832031 305.605469 C 102.628906 307.332031 103.5625 308.859375 104.628906 310.1875 L 118.625 324.128906 L 171.007812 377.507812 C 175.804688 382.289062 180.003906 383.949219 183.601562 382.488281 C 187.199219 381.027344 189 376.84375 189 369.9375 L 189 13.011719 C 189 6.640625 187.46875 2.589844 184.402344 0.863281 C 181.335938 -0.863281 177.671875 0 173.40625 3.453125 Z M 173.40625 3.453125 "/>
  </g>
</svg>

<svg xmlns="http://www.w3.org/2000/svg" viewBox="0 0 189 383"><path fill-rule="evenodd" d="M173.406 3.453c-.265.266-.668.598-1.199.996-.535.399-.934.864-1.2 1.395L5.466 173.55a2.596 2.596 0 00-1.2 1.195l-.8 1.594C0 180.586-.867 184.172.867 187.094c1.73 2.922 5.797 4.383 12.195 4.383h72.774c4.266.53 7.797 2.523 10.598 5.976 2.796 3.45 4.199 7.168 4.199 11.152v92.418c0 1.329.398 2.856 1.199 4.582.797 1.727 1.73 3.254 2.797 4.582l13.996 13.942 52.383 53.379c4.797 4.781 8.996 6.441 12.594 4.98 3.597-1.46 5.398-5.644 5.398-12.55V13.012c0-6.371-1.531-10.422-4.598-12.149-3.066-1.726-6.73-.863-10.996 2.59zm0 0"/></svg>
